src/images/html_logo.svg

<?xml version="1.0" encoding="UTF-8"?>
<svg xmlns="http://www.w3.org/2000/svg" xmlns:xlink="http://www.w3.org/1999/xlink" width="88pt" height="97pt" viewBox="0 0 88 97" version="1.1">
<g id="surface1">
<path style=" stroke:none;fill-rule:evenodd;fill:rgb(81.960784%,82.352941%,83.921569%);fill-opacity:1;" d="M 0 0 L 88 0 L 80.398438 87.53125 L 44 97 L 7.929688 87.53125 Z M 0 0 "/>
<path style=" stroke:none;fill-rule:evenodd;fill:rgb(96.078431%,96.470588%,96.862745%);fill-opacity:1;" d="M 18.484375 18.15625 L 69.605469 18.15625 L 69.605469 27.859375 L 29.070312 27.859375 L 30.039062 39.917969 L 68.769531 39.917969 L 66.699219 72.503906 L 44.058594 78.40625 L 23.078125 72.46875 L 21.570312 58.25 L 31.296875 57.234375 L 32.113281 64.9375 L 44.164062 68.347656 L 57.382812 64.902344 L 58.355469 49.617188 L 21.011719 49.617188 Z M 18.484375 18.15625 "/>
</g>
</svg>

<svg width="88" height="97" fill="none" xmlns="http://www.w3.org/2000/svg"><path fill-rule="evenodd" clip-rule="evenodd" d="M0 0h88l-7.603 87.532L44 97 7.929 87.532 0 0z" fill="#D1D2D6"/><path fill-rule="evenodd" clip-rule="evenodd" d="M22.553 18.145h48.15l-2.265 26.981-1.743 27.394-22.637 5.9-20.98-5.936-1.508-14.23 9.724-1.02.815 7.691 12.054 3.411 13.22-3.446.97-15.255H37.277v-9.73h21.787l1.01-12.031h-37.52v-9.729z" fill="#F5F6F7"/></svg>
